X:192
T:Quaker Song - Knapman
%%VWML:SBG-1-2-803-0
F:http://www.vwml.org/record/SBG/1/2/803
Z:Original Sibelius transcriptions by M. & S. Graebe
M:4/4
I:linebreak $
K:A
V:1 treble nm="P1"
V:1
"^slow" A,2 C2 E2 F2 | D2 E2 C2 A,2 | A,2 C2 A,2 G,2 | A,4 z2 :|"^fast" A, C E C B, D C A, |$ %5
 A, A, B, A, B, C C C | C3 D E A | F2 G2 E2 C2 | A, A, B, A, B, C A, A, | %9







